svg/emoji_u1f6c4.svg

<svg enable-background="new 0 0 128 128" viewBox="0 0 128 128" xmlns="http://www.w3.org/2000/svg"><linearGradient id="a" x1="64" x2="64" y1="4.25" y2="124.41" gradientUnits="userSpaceOnUse"><stop stop-color="#82B1FF" offset="0"/><stop stop-color="#6FA0FF" offset=".2644"/><stop stop-color="#3D74FF" offset=".7989"/><stop stop-color="#2962FF" offset="1"/></linearGradient><path d="m116 124h-104c-4.42 0-8-3.58-8-8v-104c0-4.42 3.58-8 8-8h104c4.42 0 8 3.58 8 8v104c0 4.42-3.58 8-8 8z" fill="url(#a)"/><g opacity=".2"><path d="m116 7c2.76 0 5 2.24 5 5v104c0 2.76-2.24 5-5 5h-104c-2.76 0-5-2.24-5-5v-104c0-2.76 2.24-5 5-5h104m0-3h-104c-4.42 0-8 3.58-8 8v104c0 4.42 3.58 8 8 8h104c4.42 0 8-3.58 8-8v-104c0-4.42-3.58-8-8-8z" fill="#424242"/></g><g fill="#424242" opacity=".2"><path d="m22 100c3.31 0 6 2.69 6 6s-2.69 6-6 6-6-2.69-6-6 2.69-6 6-6m0-3c-4.96 0-9 4.04-9 9s4.04 9 9 9 9-4.04 9-9-4.04-9-9-9z"/><path d="m43 100c3.31 0 6 2.69 6 6s-2.69 6-6 6-6-2.69-6-6 2.69-6 6-6m0-3c-4.96 0-9 4.04-9 9s4.04 9 9 9 9-4.04 9-9-4.04-9-9-9z"/><path d="m64 100c3.31 0 6 2.69 6 6s-2.69 6-6 6-6-2.69-6-6 2.69-6 6-6m0-3c-4.96 0-9 4.04-9 9s4.04 9 9 9 9-4.04 9-9-4.04-9-9-9z"/><path d="m106 100c3.31 0 6 2.69 6 6s-2.69 6-6 6-6-2.69-6-6 2.69-6 6-6m0-3c-4.96 0-9 4.04-9 9s4.04 9 9 9 9-4.04 9-9-4.04-9-9-9z"/><path d="m85 100c3.31 0 6 2.69 6 6s-2.69 6-6 6-6-2.69-6-6 2.69-6 6-6m0-3c-4.96 0-9 4.04-9 9s4.04 9 9 9 9-4.04 9-9-4.04-9-9-9z"/><path d="m72 16c4.97 0 9 4.03 9 9v2c0 0.55 0.45 1 1 1h4c1.1 0 2 0.9 2 2v60c0 1.1-0.9 2-2 2h-44c-1.1 0-2-0.9-2-2v-60c0-1.1 0.9-2 2-2h4c0.55 0 1-0.45 1-1v-2c0-4.97 4.03-9 9-9h16m-19 12h22c0.55 0 1-0.45 1-1v-2c0-2.21-1.79-4-4-4h-16c-2.21 0-4 1.79-4 4v2c0 0.55 0.45 1 1 1m19-15h-16c-6.62 0-12 5.38-12 12h-2c-2.76 0-5 2.24-5 5v60c0 2.76 2.24 5 5 5h44c2.76 0 5-2.24 5-5v-60c0-2.76-2.24-5-5-5h-2c0-6.62-5.38-12-12-12zm-17 12c0-0.55 0.45-1 1-1h16c0.55 0 1 0.45 1 1h-18z"/><path d="m30 28c1.1 0 2 0.9 2 2v60c0 1.1-0.9 2-2 2h-6c-4.42 0-8-3.58-8-8v-48c0-4.42 3.58-8 8-8h6m0-3h-6c-6.07 0-11 4.93-11 11v48c0 6.07 4.93 11 11 11h6c2.76 0 5-2.24 5-5v-60c0-2.76-2.24-5-5-5z"/><path d="m104 28c4.42 0 8 3.58 8 8v48c0 4.42-3.58 8-8 8h-6c-1.1 0-2-0.9-2-2v-60c0-1.1 0.9-2 2-2h6m0-3h-6c-2.76 0-5 2.24-5 5v60c0 2.76 2.24 5 5 5h6c6.07 0 11-4.93 11-11v-48c0-6.07-4.93-11-11-11z"/></g><g fill="#FAFAFA"><circle cx="22" cy="106" r="6"/><circle cx="43" cy="106" r="6"/><circle cx="64" cy="106" r="6"/><circle cx="106" cy="106" r="6"/><circle cx="85" cy="106" r="6"/><path d="m81 25c0-4.97-4.03-9-9-9h-16c-4.97 0-9 4.03-9 9v2c0 0.55-0.45 1-1 1h-4c-1.1 0-2 0.9-2 2v60c0 1.1 0.9 2 2 2h44c1.1 0 2-0.9 2-2v-60c0-1.1-0.9-2-2-2h-4c-0.55 0-1-0.45-1-1v-2zm-29 0c0-2.21 1.79-4 4-4h16c2.21 0 4 1.79 4 4v2c0 0.55-0.45 1-1 1h-22c-0.55 0-1-0.45-1-1v-2z"/><path d="m16 36v48c0 4.42 3.58 8 8 8h6c1.1 0 2-0.9 2-2v-60c0-1.1-0.9-2-2-2h-6c-4.42 0-8 3.58-8 8z"/><path d="m104 28h-6c-1.1 0-2 0.9-2 2v60c0 1.1 0.9 2 2 2h6c4.42 0 8-3.58 8-8v-48c0-4.42-3.58-8-8-8z"/></g></svg>

<svg width="128" height="128" style="enable-background:new 0 0 128 128;" xmlns="http://www.w3.org/2000/svg" xmlns:xlink="http://www.w3.org/1999/xlink">
  <g>
    <linearGradient id="SVGID_1_" gradientUnits="userSpaceOnUse" x1="64" x2="64" y1="4.25" y2="124.4088">
      <stop offset="0" style="stop-color:#82B1FF"/>
      <stop offset="0.2644" style="stop-color:#6FA0FF"/>
      <stop offset="0.7989" style="stop-color:#3D74FF"/>
      <stop offset="1" style="stop-color:#2962FF"/>
    </linearGradient>
    <path d="M116,124H12c-4.42,0-8-3.58-8-8V12c0-4.42,3.58-8,8-8h104c4.42,0,8,3.58,8,8v104 C124,120.42,120.42,124,116,124z" style="fill:url(#SVGID_1_);"/>
    <g style="opacity:0.2;">
      <path d="M116,7c2.76,0,5,2.24,5,5v104c0,2.76-2.24,5-5,5H12c-2.76,0-5-2.24-5-5V12c0-2.76,2.24-5,5-5H116 M116,4H12c-4.42,0-8,3.58-8,8v104c0,4.42,3.58,8,8,8h104c4.42,0,8-3.58,8-8V12C124,7.58,120.42,4,116,4L116,4z" style="fill:#424242;"/>
    </g>
    <g style="opacity:0.2;">
      <path d="M22,100c3.31,0,6,2.69,6,6s-2.69,6-6,6s-6-2.69-6-6S18.69,100,22,100 M22,97c-4.96,0-9,4.04-9,9 s4.04,9,9,9s9-4.04,9-9S26.96,97,22,97L22,97z" style="fill:#424242;"/>
      <path d="M43,100c3.31,0,6,2.69,6,6s-2.69,6-6,6s-6-2.69-6-6S39.69,100,43,100 M43,97c-4.96,0-9,4.04-9,9 s4.04,9,9,9s9-4.04,9-9S47.96,97,43,97L43,97z" style="fill:#424242;"/>
      <path d="M64,100c3.31,0,6,2.69,6,6s-2.69,6-6,6s-6-2.69-6-6S60.69,100,64,100 M64,97c-4.96,0-9,4.04-9,9 s4.04,9,9,9s9-4.04,9-9S68.96,97,64,97L64,97z" style="fill:#424242;"/>
      <path d="M106,100c3.31,0,6,2.69,6,6s-2.69,6-6,6s-6-2.69-6-6S102.69,100,106,100 M106,97 c-4.96,0-9,4.04-9,9s4.04,9,9,9s9-4.04,9-9S110.96,97,106,97L106,97z" style="fill:#424242;"/>
      <path d="M85,100c3.31,0,6,2.69,6,6s-2.69,6-6,6s-6-2.69-6-6S81.69,100,85,100 M85,97c-4.96,0-9,4.04-9,9 s4.04,9,9,9s9-4.04,9-9S89.96,97,85,97L85,97z" style="fill:#424242;"/>
      <g>
        <path d="M72,16c4.97,0,9,4.03,9,9v2c0,0.55,0.45,1,1,1h4c1.1,0,2,0.9,2,2v60c0,1.1-0.9,2-2,2H42 c-1.1,0-2-0.9-2-2V30c0-1.1,0.9-2,2-2h4c0.55,0,1-0.45,1-1v-2c0-4.97,4.03-9,9-9H72 M53,28h22c0.55,0,1-0.45,1-1v-2 c0-2.21-1.79-4-4-4H56c-2.21,0-4,1.79-4,4v2C52,27.55,52.45,28,53,28 M72,13H56c-6.62,0-12,5.38-12,12h-2c-2.76,0-5,2.24-5,5v60 c0,2.76,2.24,5,5,5h44c2.76,0,5-2.24,5-5V30c0-2.76-2.24-5-5-5h-2C84,18.38,78.62,13,72,13L72,13z M55,25c0-0.55,0.45-1,1-1h16 c0.55,0,1,0.45,1,1H55L55,25z" style="fill:#424242;"/>
        <path d="M30,28c1.1,0,2,0.9,2,2v60c0,1.1-0.9,2-2,2h-6c-4.42,0-8-3.58-8-8V36c0-4.42,3.58-8,8-8H30 M30,25h-6c-6.07,0-11,4.93-11,11v48c0,6.07,4.93,11,11,11h6c2.76,0,5-2.24,5-5V30C35,27.24,32.76,25,30,25L30,25z" style="fill:#424242;"/>
        <path d="M104,28c4.42,0,8,3.58,8,8v48c0,4.42-3.58,8-8,8h-6c-1.1,0-2-0.9-2-2V30c0-1.1,0.9-2,2-2H104 M104,25h-6c-2.76,0-5,2.24-5,5v60c0,2.76,2.24,5,5,5h6c6.07,0,11-4.93,11-11V36C115,29.93,110.07,25,104,25L104,25z" style="fill:#424242;"/>
      </g>
    </g>
    <g>
      <circle cx="22" cy="106" r="6" style="fill:#FAFAFA;"/>
      <circle cx="43" cy="106" r="6" style="fill:#FAFAFA;"/>
      <circle cx="64" cy="106" r="6" style="fill:#FAFAFA;"/>
      <circle cx="106" cy="106" r="6" style="fill:#FAFAFA;"/>
      <circle cx="85" cy="106" r="6" style="fill:#FAFAFA;"/>
      <g>
        <path d="M81,25c0-4.97-4.03-9-9-9H56c-4.97,0-9,4.03-9,9v2c0,0.55-0.45,1-1,1h-4c-1.1,0-2,0.9-2,2v60 c0,1.1,0.9,2,2,2h44c1.1,0,2-0.9,2-2V30c0-1.1-0.9-2-2-2h-4c-0.55,0-1-0.45-1-1V25z M52,25c0-2.21,1.79-4,4-4h16 c2.21,0,4,1.79,4,4v2c0,0.55-0.45,1-1,1H53c-0.55,0-1-0.45-1-1V25z" style="fill:#FAFAFA;"/>
        <path d="M16,36v48c0,4.42,3.58,8,8,8h6c1.1,0,2-0.9,2-2V30c0-1.1-0.9-2-2-2h-6C19.58,28,16,31.58,16,36z" style="fill:#FAFAFA;"/>
        <path d="M104,28h-6c-1.1,0-2,0.9-2,2v60c0,1.1,0.9,2,2,2h6c4.42,0,8-3.58,8-8V36 C112,31.58,108.42,28,104,28z" style="fill:#FAFAFA;"/>
      </g>
    </g>
  </g>
</svg>
